app/img/m-logo-2.svg

<svg width="28" height="37" viewBox="0 0 28 37" fill="none" xmlns="http://www.w3.org/2000/svg">
<path d="M7.9477 31.6812C9.87904 31.6812 11.4447 28.5321 11.4447 24.6475C11.4447 20.7629 9.87904 17.6138 7.9477 17.6138C6.01637 17.6138 4.45071 20.7629 4.45071 24.6475C4.45071 28.5321 6.01637 31.6812 7.9477 31.6812Z" fill="#39322B"/>
<path d="M18.7566 31.6812C20.6879 31.6812 22.2536 28.5321 22.2536 24.6475C22.2536 20.7629 20.6879 17.6138 18.7566 17.6138C16.8253 17.6138 15.2596 20.7629 15.2596 24.6475C15.2596 28.5321 16.8253 31.6812 18.7566 31.6812Z" fill="#39322B"/>
<path fill-rule="evenodd" clip-rule="evenodd" d="M19.7103 9.30118L6.99398 11.8589C6.99398 11.8589 6.35817 13.8539 6.99398 18.2532C7.13386 19.1804 8.1766 20.1267 8.90143 20.8109C9.62626 21.4951 10.1731 21.2521 10.1731 25.2869C10.1731 29.3217 6.54891 28.7206 3.17908 30.4023C0 31.9881 0 36.7966 0 36.7966H27.3401C27.3401 36.7966 26.9332 31.5917 24.7968 30.4023C21.9929 28.8357 16.5312 29.9228 16.5312 25.2869C16.5312 22.8187 16.4804 22.3072 17.8029 20.8109C18.2416 20.3121 19.5768 19.532 19.7103 18.8926C20.3079 15.7237 20.3079 12.4701 19.7103 9.30118Z" fill="white"/>
<path fill-rule="evenodd" clip-rule="evenodd" d="M13.988 36.7966H27.3401C27.3401 36.7966 26.9332 31.5917 24.7969 30.4023C21.9929 28.8357 16.5312 29.9228 16.5312 25.2869C16.5312 22.8187 16.4804 22.3072 17.8029 20.8109C18.2416 20.3121 19.5768 19.532 19.7103 18.8926C20.1554 16.3733 21.0773 12.3193 20.5623 9.82551C20.4224 9.14771 19.2907 9.95979 19.0745 9.30118C19.0745 9.30118 19.8375 12.6326 18.1844 17.1214C17.326 19.4489 14.1279 21.2777 14.1279 23.3942C14.1279 30.9203 13.988 36.7966 13.988 36.7966Z" fill="#F1EEE9"/>
<path fill-rule="evenodd" clip-rule="evenodd" d="M21.6178 29.7629C21.6178 29.7629 25.4327 25.7345 25.4327 21.4503C25.4327 16.7761 23.309 16.0408 23.5252 13.1378C24.1038 5.30476 21.0583 0.988617 13.3522 0.988617C5.08654 0.988617 2.26351 6.52607 3.17909 13.7772C3.45249 15.9321 1.27164 16.9168 1.27164 20.1715C1.27164 25.402 5.08654 29.7629 5.08654 29.7629C5.08654 29.7629 6.35817 29.0212 6.49805 27.9086C6.63793 26.796 5.54433 25.2613 5.90038 23.7523C6.35817 21.834 7.4327 20.2418 7.6298 18.2532C7.92864 15.2735 6.56799 12.4983 6.99399 12.4983C8.61532 12.4983 12.8244 13.7005 15.2596 12.4983C17.6948 11.2962 18.9601 8.93672 19.7612 10.1516C20.2826 10.9701 18.7375 14.9537 19.7485 19.9221C20.0855 21.6166 20.8294 23.1193 20.9311 25.0695C21.001 26.4699 20.3461 26.9878 20.3461 27.8574C20.3461 29.8716 21.6178 29.7629 21.6178 29.7629Z" fill="#009F90"/>
<path fill-rule="evenodd" clip-rule="evenodd" d="M15.8954 19.0909C15.0625 18.7647 14.2296 18.2532 13.3521 18.2532C12.4747 18.2532 11.6481 18.7647 10.8089 19.0909C10.8089 19.0909 12.3857 20.8109 13.3521 20.8109C14.3186 20.8109 15.8954 19.0909 15.8954 19.0909Z" fill="#39322B"/>
<path fill-rule="evenodd" clip-rule="evenodd" d="M9.53724 30.4024L6.35815 36.7967H21.6178L17.8029 30.4024H9.53724Z" fill="#006C71"/>
<path fill-rule="evenodd" clip-rule="evenodd" d="M8.67889 28.3817L7.40726 28.9508C7.40726 28.9508 10.6181 31.6812 13.6319 31.6812C16.6457 31.6812 19.7802 29.0468 19.7802 29.0468L18.356 28.5096C18.356 28.5096 15.6856 29.7885 13.6065 29.7885C11.5273 29.7885 8.67889 28.3817 8.67889 28.3817Z" fill="#009F90"/>
</svg>

<svg width="28" height="37" fill="none" xmlns="http://www.w3.org/2000/svg"><path d="M7.948 31.681c1.931 0 3.497-3.149 3.497-7.034 0-3.884-1.566-7.033-3.497-7.033-1.932 0-3.497 3.149-3.497 7.034 0 3.884 1.565 7.033 3.497 7.033zM18.757 31.681c1.93 0 3.497-3.149 3.497-7.034 0-3.884-1.566-7.033-3.497-7.033-1.932 0-3.497 3.149-3.497 7.034 0 3.884 1.565 7.033 3.497 7.033z" fill="#39322B"/><path fill-rule="evenodd" clip-rule="evenodd" d="M19.71 9.301L6.994 11.86s-.636 1.995 0 6.394c.14.927 1.183 1.874 1.907 2.558.725.684 1.272.441 1.272 4.476S6.55 28.72 3.18 30.402C0 31.988 0 36.797 0 36.797h27.34s-.407-5.205-2.543-6.395c-2.804-1.566-8.266-.48-8.266-5.115 0-2.468-.05-2.98 1.272-4.476.439-.499 1.774-1.279 1.907-1.918a25.881 25.881 0 000-9.592z" fill="#fff"/><path fill-rule="evenodd" clip-rule="evenodd" d="M13.988 36.797H27.34s-.407-5.205-2.543-6.395c-2.804-1.566-8.266-.48-8.266-5.115 0-2.468-.05-2.98 1.272-4.476.439-.499 1.774-1.279 1.907-1.918.445-2.52 1.367-6.574.852-9.067-.14-.678-1.271.134-1.488-.525 0 0 .763 3.332-.89 7.82-.858 2.328-4.056 4.157-4.056 6.273 0 7.526-.14 13.403-.14 13.403z" fill="#F1EEE9"/><path fill-rule="evenodd" clip-rule="evenodd" d="M21.618 29.763s3.815-4.029 3.815-8.313c0-4.674-2.124-5.41-1.908-8.312.579-7.833-2.467-12.15-10.173-12.15-8.265 0-11.088 5.538-10.173 12.79.273 2.154-1.907 3.139-1.907 6.394 0 5.23 3.815 9.59 3.815 9.59s1.271-.74 1.411-1.853c.14-1.113-.954-2.648-.598-4.157.458-1.918 1.533-3.51 1.73-5.499.299-2.98-1.062-5.755-.636-5.755 1.621 0 5.83 1.203 8.266 0 2.435-1.202 3.7-3.561 4.501-2.346.522.818-1.023 4.802-.012 9.77.337 1.695 1.08 3.197 1.182 5.148.07 1.4-.585 1.918-.585 2.787 0 2.015 1.272 1.906 1.272 1.906z" fill="#009F90"/><path fill-rule="evenodd" clip-rule="evenodd" d="M15.895 19.09c-.832-.325-1.665-.837-2.543-.837-.877 0-1.704.512-2.543.838 0 0 1.577 1.72 2.543 1.72.967 0 2.543-1.72 2.543-1.72z" fill="#39322B"/><path fill-rule="evenodd" clip-rule="evenodd" d="M9.537 30.402l-3.179 6.395h15.26l-3.815-6.395H9.537z" fill="#006C71"/><path fill-rule="evenodd" clip-rule="evenodd" d="M8.679 28.382l-1.272.569s3.211 2.73 6.225 2.73 6.148-2.634 6.148-2.634l-1.424-.537s-2.67 1.278-4.75 1.278c-2.079 0-4.927-1.406-4.927-1.406z" fill="#009F90"/></svg>
